svgs/nextcloud_photos.svg

<svg width="192" height="192" viewBox="0 0 192 192" fill="none" xmlns="http://www.w3.org/2000/svg">
<path d="M63.2409 62.1721C55.218 62.1721 48.7146 68.6755 48.7146 76.6984C48.7146 84.7212 55.218 91.2247 63.2409 91.2247C71.2638 91.2247 77.7672 84.7212 77.7672 76.6984C77.7672 68.6755 71.2638 62.1721 63.2409 62.1721Z" stroke="black" stroke-width="12"/>
<path d="M37.0869 50.5453L153.297 50.5454V98.9664L143.613 89.2822L114.561 128.019L85.5079 98.9664L46.7711 137.703H37.0869V50.5453Z" stroke="black" stroke-width="12" stroke-linecap="round" stroke-linejoin="round"/>
<path d="M25.6346 33C23.5467 33.4043 21.9631 35.4674 22.0007 37.625V155.232C22.0007 157.663 24.2418 159.862 26.6256 159.862H165.375C167.759 159.862 170 157.658 170 155.237V39.4485C169.995 35.8907 167.204 32.9847 164.55 33.0053L25.6346 33Z" stroke="black" stroke-width="12" stroke-linecap="round" stroke-linejoin="round"/>
</svg>

<svg width="192" height="192" viewBox="0 0 192 192" fill="none" xmlns="http://www.w3.org/2000/svg"><path d="M63.24 62.172c-8.022 0-14.525 6.504-14.525 14.526 0 8.023 6.503 14.527 14.526 14.527s14.526-6.504 14.526-14.527c0-8.022-6.503-14.526-14.526-14.526Z" stroke="#000" stroke-width="12"/><path d="M37.087 50.545h116.21v48.421l-9.684-9.684-29.052 38.737-29.053-29.053-38.737 38.737h-9.684V50.545Z" stroke="#000" stroke-width="12" stroke-linecap="round" stroke-linejoin="round"/><path d="M25.635 33c-2.088.404-3.672 2.467-3.634 4.625v117.607c0 2.431 2.24 4.63 4.625 4.63h138.749c2.384 0 4.625-2.204 4.625-4.625V39.449c-.005-3.558-2.796-6.464-5.45-6.444L25.635 33Z" stroke="#000" stroke-width="12" stroke-linecap="round" stroke-linejoin="round"/></svg>
